icons/1_Primary/Zenegy.svg

<svg xmlns="http://www.w3.org/2000/svg" width="1024" height="1024" fill="none">
   <g clip-path="url(#a)">
      <path fill="#FF837D" d="M512 1024c282.77 0 512-229.23 512-512S794.77 0 512 0 0 229.23 0 512s229.23 512 512 512Z"/>
      <path fill="#fff" d="M381.41 768a75.858 75.858 0 0 1-47.05-135.38l336.07-265.54c18.47-14.6 19.64-35.38 14.57-50-5.07-14.62-18.86-30.08-42.41-30.08H381.41c-23.55 0-37.35 15.58-42.42 30.16s-3.9 35.36 14.57 50l42.14 33.3a15.481 15.481 0 0 1-9.61 27.54 15.326 15.326 0 0 1-9.59-3.34l-42.14-33.29A75.86 75.86 0 0 1 381.41 256h261.18a75.857 75.857 0 0 1 72.843 97.1 75.862 75.862 0 0 1-25.793 38.28L353.56 656.92c-18.47 14.59-19.64 35.38-14.57 50 5.07 14.62 18.87 30.08 42.42 30.08h261.18c23.55 0 37.35-15.58 42.42-30.16s3.9-35.36-14.57-50l-43.49-34.36a15.481 15.481 0 0 1 9.61-27.63 15.338 15.338 0 0 1 9.6 3.34l43.49 34.36a75.864 75.864 0 0 1 24.714 84.487A75.856 75.856 0 0 1 642.59 768H381.41Zm-29-219.78a15.338 15.338 0 0 0 9.59-3.34l207.09-163.66a19.683 19.683 0 0 0-.787-31.49 19.681 19.681 0 0 0-11.413-3.64H454.77a15.5 15.5 0 1 0 0 31h69.64L342.75 520.58a15.48 15.48 0 0 0 9.62 27.63l.04.01Zm113.24 128h96.22a15.5 15.5 0 1 0 0-31h-63.78l181.66-143.53a15.486 15.486 0 0 0 2.54-21.75 15.486 15.486 0 0 0-21.75-2.54L453.4 641.06a19.68 19.68 0 0 0 12.21 35.13l.04.03Z"/>
   </g>
   <defs>
      <clipPath id="a">
         <path fill="#fff" d="M0 0h1024v1024H0z"/>
      </clipPath>
   </defs>
</svg>

<svg width="1024" height="1024" viewBox="0 0 1024 1024" fill="none" xmlns="http://www.w3.org/2000/svg">
<g clip-path="url(#clip0_2_4027)">
<path d="M512 1024C794.77 1024 1024 794.77 1024 512C1024 229.23 794.77 0 512 0C229.23 0 0 229.23 0 512C0 794.77 229.23 1024 512 1024Z" fill="#FF837D"/>
<path d="M381.41 768C365.65 768.004 350.281 763.099 337.437 753.967C324.592 744.835 314.911 731.93 309.737 717.043C304.564 702.157 304.155 686.029 308.567 670.9C312.98 655.77 321.995 642.391 334.36 632.62L670.43 367.08C688.9 352.48 690.07 331.7 685 317.08C679.93 302.46 666.14 287 642.59 287H381.41C357.86 287 344.06 302.58 338.99 317.16C333.92 331.74 335.09 352.52 353.56 367.16L395.7 400.46C398.19 402.464 399.999 405.189 400.878 408.261C401.757 411.334 401.664 414.603 400.611 417.62C399.558 420.638 397.597 423.255 394.997 425.114C392.397 426.972 389.286 427.98 386.09 428C382.607 428.009 379.225 426.831 376.5 424.66L334.36 391.37C321.999 381.598 312.988 368.219 308.578 353.092C304.167 337.964 304.577 321.839 309.751 306.955C314.924 292.071 324.603 279.168 337.445 270.036C350.287 260.905 365.653 255.999 381.41 256H642.59C658.35 255.996 673.719 260.901 686.564 270.033C699.408 279.165 709.089 292.07 714.263 306.957C719.437 321.843 719.845 337.971 715.433 353.1C711.02 368.23 702.005 381.609 689.64 391.38L353.56 656.92C335.09 671.51 333.92 692.3 338.99 706.92C344.06 721.54 357.86 737 381.41 737H642.59C666.14 737 679.94 721.42 685.01 706.84C690.08 692.26 688.91 671.48 670.44 656.84L626.95 622.48C624.425 620.486 622.583 617.755 621.682 614.666C620.781 611.577 620.864 608.284 621.921 605.245C622.978 602.206 624.956 599.571 627.58 597.708C630.203 595.845 633.342 594.846 636.56 594.85C640.047 594.84 643.433 596.018 646.16 598.19L689.65 632.55C702.044 642.314 711.085 655.699 715.515 670.842C719.944 685.985 719.542 702.133 714.364 717.037C709.186 731.94 699.49 744.859 686.625 753.993C673.761 763.128 658.368 768.024 642.59 768H381.41ZM352.41 548.22C355.893 548.228 359.275 547.05 362 544.88L569.09 381.22C572.301 378.686 574.643 375.215 575.79 371.289C576.937 367.363 576.833 363.178 575.491 359.314C574.149 355.45 571.637 352.1 568.303 349.73C564.969 347.36 560.98 346.088 556.89 346.09H454.77C450.659 346.09 446.717 347.723 443.81 350.63C440.903 353.537 439.27 357.479 439.27 361.59C439.27 365.701 440.903 369.643 443.81 372.55C446.717 375.457 450.659 377.09 454.77 377.09H524.41L342.75 520.58C340.224 522.574 338.382 525.307 337.481 528.397C336.58 531.486 336.665 534.78 337.723 537.82C338.781 540.86 340.761 543.494 343.386 545.356C346.011 547.218 349.152 548.216 352.37 548.21L352.41 548.22ZM465.65 676.22H561.87C565.981 676.22 569.923 674.587 572.83 671.68C575.737 668.773 577.37 664.831 577.37 660.72C577.37 656.609 575.737 652.667 572.83 649.76C569.923 646.853 565.981 645.22 561.87 645.22H498.09L679.75 501.69C682.971 499.143 685.048 495.42 685.525 491.341C686.001 487.262 684.838 483.161 682.29 479.94C679.743 476.719 676.02 474.642 671.941 474.165C667.862 473.689 663.761 474.853 660.54 477.4L453.4 641.06C450.188 643.594 447.846 647.066 446.699 650.993C445.553 654.92 445.658 659.107 447.001 662.971C448.344 666.835 450.858 670.185 454.193 672.554C457.529 674.923 461.519 676.194 465.61 676.19L465.65 676.22Z" fill="white"/>
</g>
<defs>
<clipPath id="clip0_2_4027">
<rect width="1024" height="1024" fill="white"/>
</clipPath>
</defs>
</svg>
